dist/img/geo.svg

<svg width="17" height="17" viewBox="0 0 17 17" fill="none" xmlns="http://www.w3.org/2000/svg">
<path d="M8.4882 0C5.05271 0 2.25781 2.7949 2.25781 6.23038C2.25781 7.80857 3.25222 10.0384 5.21354 12.8579C6.64711 14.919 8.05708 16.5139 8.11648 16.5808L8.4882 17L8.86005 16.5808C8.91932 16.5139 10.3293 14.919 11.763 12.8579C13.7242 10.0384 14.7187 7.80857 14.7187 6.23038C14.7187 2.7949 11.9237 0 8.4882 0ZM10.9525 12.2823C9.98351 13.6763 9.00414 14.876 8.4882 15.4881C7.97355 14.8777 6.99782 13.6825 6.02948 12.2903C4.21226 9.67793 3.2517 7.58237 3.2517 6.23038C3.2517 3.34301 5.60082 0.993889 8.4882 0.993889C11.3757 0.993889 13.7247 3.34301 13.7247 6.23038C13.7247 7.58095 12.7661 9.67365 10.9525 12.2823Z" fill="#005FA3"/>
<path d="M8.48821 2.30267C6.46062 2.30267 4.8111 3.95219 4.8111 5.97979C4.8111 8.00739 6.46062 9.65704 8.48821 9.65704C10.5159 9.65704 12.1655 8.00739 12.1655 5.97979C12.1655 3.95219 10.5159 2.30267 8.48821 2.30267ZM8.48821 8.66315C7.00873 8.66315 5.80499 7.4594 5.80499 5.97979C5.80499 4.50031 7.00873 3.29656 8.48821 3.29656C9.96783 3.29656 11.1716 4.50031 11.1716 5.97979C11.1716 7.4594 9.96783 8.66315 8.48821 8.66315Z" fill="#005FA3"/>
</svg>

<svg width="17" height="17" viewBox="0 0 17 17" fill="none" xmlns="http://www.w3.org/2000/svg"><path d="M8.488 0a6.237 6.237 0 0 0-6.23 6.23c0 1.579.994 3.808 2.956 6.628a44.451 44.451 0 0 0 2.902 3.723l.372.419.372-.42c.06-.066 1.47-1.661 2.903-3.722 1.961-2.82 2.956-5.05 2.956-6.628A6.237 6.237 0 0 0 8.489 0zm2.465 12.282a45.188 45.188 0 0 1-2.465 3.206A45.143 45.143 0 0 1 6.03 12.29C4.212 9.678 3.252 7.582 3.252 6.23A5.242 5.242 0 0 1 8.488.994a5.242 5.242 0 0 1 5.237 5.236c0 1.35-.959 3.444-2.772 6.052z" fill="#005FA3"/><path d="M8.488 2.303A3.681 3.681 0 0 0 4.811 5.98a3.681 3.681 0 0 0 3.677 3.677 3.681 3.681 0 0 0 3.678-3.677 3.681 3.681 0 0 0-3.678-3.677zm0 6.36A2.686 2.686 0 0 1 5.805 5.98a2.686 2.686 0 0 1 2.683-2.683 2.686 2.686 0 0 1 2.684 2.683 2.686 2.686 0 0 1-2.684 2.683z" fill="#005FA3"/></svg>
